svgs/commonvoice.svg

<svg xmlns="http://www.w3.org/2000/svg" viewBox="0 0 192 192"><path d="M115.447 104.517H76.431a.486.486 0 0 0-.273.225.489.489 0 0 0-.053.351 22.223 22.223 0 0 0 7.88 9.978A21.924 21.924 0 0 0 96 119.042a21.92 21.92 0 0 0 12.006-3.954 22.224 22.224 0 0 0 7.889-9.954.531.531 0 0 0-.192-.506.54.54 0 0 0-.256-.111Zm12.435-28.267c-.053-.027-.113-.036-.172-.027a.298.298 0 0 0-.155.078.295.295 0 0 0-.081.155c-.371.902-1 1.673-1.805 2.215a4.853 4.853 0 0 1-2.721.829 4.977 4.977 0 0 1-2.683-.86 5.046 5.046 0 0 1-1.801-2.184 5.027 5.027 0 0 1 .012-3.779 4.96 4.96 0 0 1 2.638-2.681.29.29 0 0 0 .247-.144.292.292 0 0 0 .038-.144.333.333 0 0 0-.08-.22.33.33 0 0 0-.205-.109 11.555 11.555 0 0 0-4.892-.33 11.34 11.34 0 0 0-7.198 3.689 11.537 11.537 0 0 0-2.96 7.58 11.54 11.54 0 0 0 2.769 7.653 11.35 11.35 0 0 0 7.103 3.872c2.756.37 5.554-.292 7.859-1.861a11.474 11.474 0 0 0 4.657-6.655c.567-2.281.41-4.685-.448-6.871a.336.336 0 0 0-.122-.206Z" fill="none" stroke="#000" stroke-width="8" stroke-linecap="round" stroke-linejoin="round"/><path d="M165.308 68.515a33.308 33.308 0 0 0-11.427-18.907 32.762 32.762 0 0 0-20.659-7.468h-74.24a32.762 32.762 0 0 0-20.659 7.468 33.303 33.303 0 0 0-11.427 18.907 14.879 14.879 0 0 0-7.494 5.41 15.113 15.113 0 0 0-2.902 8.826v24.029a17.547 17.547 0 0 0 4.11 11.279 17.252 17.252 0 0 0 10.363 5.92 47.234 47.234 0 0 0 17.3 18.891 46.646 46.646 0 0 0 24.529 6.99h46.029a46.686 46.686 0 0 0 24.549-6.985 47.285 47.285 0 0 0 17.321-18.896 17.247 17.247 0 0 0 10.565-5.825 17.55 17.55 0 0 0 4.234-11.374V82.751a15.119 15.119 0 0 0-2.819-8.779 14.894 14.894 0 0 0-7.373-5.457Zm-17.246 39.088a27.208 27.208 0 0 1-7.857 19.062 26.71 26.71 0 0 1-18.887 7.93H70.886a26.756 26.756 0 0 1-18.902-7.927 27.253 27.253 0 0 1-7.883-19.065V78.472c0-6.254 2.461-12.26 6.84-16.686a23.302 23.302 0 0 1 16.521-6.932h57.076a23.343 23.343 0 0 1 16.495 6.929 23.778 23.778 0 0 1 6.866 16.648Z" fill="none" stroke="#000" stroke-width="8" stroke-linecap="round" stroke-linejoin="round"/><path d="M85.4 83.204c.614-2.22.529-4.579-.245-6.748a.322.322 0 0 0-.203-.206.284.284 0 0 0-.408.206 4.925 4.925 0 0 1-2.077 2.392 4.853 4.853 0 0 1-5.916-.796 4.977 4.977 0 0 1-.751-5.975 4.905 4.905 0 0 1 2.384-2.081.286.286 0 0 0 .285-.288.333.333 0 0 0-.08-.22.33.33 0 0 0-.205-.109 9.902 9.902 0 0 0-1.835-.453 11.258 11.258 0 0 0-8.37 1.969 11.455 11.455 0 0 0-4.594 7.33 11.58 11.58 0 0 0 1.497 8.662 11.39 11.39 0 0 0 7.126 5.057c2.945.665 6.034.122 8.583-1.508a11.495 11.495 0 0 0 5.013-7.191Z" fill="none" stroke="#000" stroke-width="8" stroke-linecap="round" stroke-linejoin="round"/></svg>

<svg
    xmlns="http://www.w3.org/2000/svg"
    viewBox="0 0 192 192"
    id="vector">
    <path
        id="path"
        d="M 115.447 104.517 L 76.431 104.517 C 76.315 104.555 76.218 104.635 76.158 104.742 C 76.097 104.848 76.078 104.974 76.105 105.093 C 77.71 109.123 80.45 112.593 83.985 115.071 C 87.52 117.549 91.697 118.93 96 119.042 C 100.298 118.933 104.472 117.559 108.006 115.088 C 111.541 112.617 114.283 109.157 115.895 105.134 C 115.911 105.04 115.901 104.944 115.867 104.855 C 115.833 104.766 115.777 104.688 115.703 104.628 C 115.629 104.569 115.54 104.531 115.447 104.517 Z M 127.882 76.25 C 127.829 76.223 127.769 76.214 127.71 76.223 C 127.652 76.233 127.598 76.26 127.555 76.301 C 127.513 76.343 127.485 76.397 127.474 76.456 C 127.103 77.358 126.474 78.129 125.669 78.671 C 124.864 79.213 123.917 79.502 122.948 79.5 C 121.991 79.478 121.06 79.18 120.265 78.64 C 119.47 78.101 118.845 77.342 118.464 76.456 C 117.976 75.244 117.981 73.886 118.476 72.677 C 118.972 71.469 119.92 70.505 121.114 69.996 C 121.164 69.996 121.213 69.982 121.257 69.957 C 121.3 69.932 121.336 69.896 121.361 69.852 C 121.386 69.808 121.399 69.758 121.399 69.708 C 121.4 69.627 121.371 69.549 121.319 69.488 C 121.266 69.428 121.193 69.389 121.114 69.379 C 119.525 68.92 117.857 68.808 116.222 69.049 C 113.457 69.349 110.895 70.662 109.024 72.738 C 107.152 74.814 106.099 77.512 106.064 80.318 C 106.028 83.124 107.014 85.848 108.833 87.971 C 110.651 90.094 113.18 91.472 115.936 91.843 C 118.692 92.213 121.49 91.551 123.795 89.982 C 126.101 88.414 127.759 86.045 128.452 83.327 C 129.019 81.046 128.862 78.642 128.004 76.456 C 127.99 76.374 127.946 76.301 127.882 76.25 Z"
        fill="none"
        stroke="#000000"
        stroke-width="8"
        stroke-linecap="round"
        stroke-linejoin="round"/>
    <path
        id="path_1"
        d="M 165.308 68.515 C 163.752 61.081 159.717 54.406 153.881 49.608 C 148.044 44.81 140.75 42.173 133.222 42.14 L 58.982 42.14 C 51.454 42.173 44.16 44.81 38.323 49.608 C 32.486 54.406 28.452 61.081 26.896 68.515 C 23.894 69.472 21.269 71.367 19.402 73.925 C 17.534 76.482 16.518 79.574 16.5 82.751 L 16.5 106.78 C 16.503 110.912 17.961 114.91 20.61 118.059 C 23.26 121.208 26.934 123.307 30.973 123.979 C 34.904 131.765 40.892 138.304 48.273 142.87 C 55.654 147.437 64.145 149.857 72.802 149.86 L 118.831 149.86 C 127.494 149.86 135.992 147.442 143.38 142.875 C 150.768 138.308 156.763 131.768 160.701 123.979 C 164.799 123.378 168.55 121.31 171.266 118.154 C 173.981 114.998 175.484 110.96 175.5 106.78 L 175.5 82.751 C 175.496 79.599 174.51 76.527 172.681 73.972 C 170.852 71.418 168.272 69.508 165.308 68.515 Z M 148.062 107.603 C 148.041 114.752 145.214 121.61 140.205 126.665 C 135.196 131.721 128.402 134.573 121.318 134.595 L 70.886 134.595 C 63.799 134.573 57 131.722 51.984 126.668 C 46.969 121.614 44.133 114.756 44.101 107.603 L 44.101 78.472 C 44.101 72.218 46.562 66.212 50.941 61.786 C 55.319 57.36 61.264 54.865 67.462 54.854 L 124.538 54.854 C 130.725 54.876 136.659 57.368 141.033 61.783 C 145.408 66.199 147.878 72.187 147.899 78.431 Z"
        fill="none"
        stroke="#000000"
        stroke-width="8"
        stroke-linecap="round"
        stroke-linejoin="round"/>
    <path
        id="path_2"
        d="M 85.4 83.204 C 86.014 80.984 85.929 78.625 85.155 76.456 C 85.139 76.408 85.113 76.365 85.077 76.329 C 85.042 76.293 84.999 76.266 84.952 76.25 C 84.899 76.223 84.839 76.214 84.78 76.223 C 84.722 76.233 84.668 76.26 84.625 76.302 C 84.583 76.343 84.555 76.397 84.544 76.456 C 84.132 77.462 83.402 78.304 82.467 78.848 C 81.532 79.393 80.444 79.61 79.375 79.466 C 78.305 79.322 77.312 78.824 76.551 78.052 C 75.791 77.279 75.304 76.274 75.168 75.193 C 75.032 74.113 75.255 73.017 75.8 72.077 C 76.345 71.137 77.184 70.405 78.184 69.996 C 78.26 69.996 78.332 69.965 78.386 69.911 C 78.439 69.857 78.469 69.784 78.469 69.708 C 78.47 69.627 78.441 69.549 78.389 69.488 C 78.336 69.428 78.263 69.389 78.184 69.379 C 77.588 69.17 76.974 69.018 76.349 68.926 C 73.412 68.448 70.404 69.156 67.979 70.895 C 65.555 72.634 63.903 75.269 63.385 78.225 C 62.726 81.197 63.265 84.315 64.882 86.887 C 66.498 89.458 69.063 91.279 72.008 91.944 C 74.953 92.609 78.042 92.066 80.591 90.436 C 83.139 88.805 84.944 86.217 85.604 83.245 Z"
        fill="none"
        stroke="#000000"
        stroke-width="8"
        stroke-linecap="round"
        stroke-linejoin="round"/>
</svg>
